X: 1
T: Bag Of Spuds, The
M: 4/4
L: 1/8
R: reel
K: Gmaj
|:Bdd2 =ceed | BddB ABGA | Bdd2 =ceed | gabg abag:|
|:gabg eaaf | gbag efed | gbag eaaf | gedb abag:|
